images/arrow_left.svg

<svg width="66" height="67" viewBox="0 0 66 67" fill="none" xmlns="http://www.w3.org/2000/svg">
<circle cx="32.8217" cy="33.2201" r="31.8217" stroke="black" stroke-width="2"/>
<path d="M9.34008 29.5369C8.1685 30.7085 8.1685 32.608 9.34008 33.7795L28.432 52.8714C29.6035 54.043 31.503 54.043 32.6746 52.8714C33.8462 51.6998 33.8462 49.8003 32.6746 48.6288L15.704 31.6582L32.6746 14.6876C33.8462 13.5161 33.8462 11.6166 32.6746 10.445C31.503 9.27343 29.6035 9.27343 28.432 10.445L9.34008 29.5369ZM55.2236 28.6582L11.4614 28.6582V34.6582L55.2236 34.6582V28.6582Z" fill="#3C3C3C"/>
</svg>

<svg width="66" height="67" fill="none" xmlns="http://www.w3.org/2000/svg"><circle cx="32.822" cy="33.22" r="31.822" stroke="#000" stroke-width="2"/><path d="M9.34 29.537a3 3 0 000 4.242l19.092 19.092a3 3 0 104.243-4.242l-16.971-16.97 16.97-16.971a3 3 0 10-4.242-4.243L9.34 29.537zm45.884-.879H11.46v6h43.763v-6z" fill="#3C3C3C"/></svg>
